X:1
T:Title
%%score ( 1 2 ) ( 3 4 )
L:1/8
Q:1/4=105
M:6/8
K:D
V:1 treble nm="Grand Piano, Soprano"
V:2 treble 
V:3 bass nm="Choir Pad, Chad, 75.75 D, Belue"
V:4 bass 
V:1
 [DF]2 [DE] [A,D]2 [DF] | [FA]2 [GB] .[FA]3 | [Fd]2 [GB] [FA]2 [DF] | [CE]6 | %4
w: By~Montgomery~Elgar~Belue,~1922 * * *||||
 [DF]2 [DE] [A,D]2 [DF] | [FA]2 [GB] .[FA]3 | [GB]2 [Gd] [Ec]2 [Gc] | [Fd]6 | %8
w: ||||
 [FA]2 [DF] [A,D]2 [DF] | [FA]2 A .[GB]3 | [Fd]2 [GB] [FA]2 [DF] | E2- [CE-] [CE]3 | %12
w: ||||
 [DF]2 [DE] [A,D]2 [DF] | [FA]2 [GB] .[FA]3 | [GB]2 [Gd] [Ec]2 [Gc] | d2- [Gd-] [Fd]3- | [Fd]6 |] %17
w: |||||
V:2
 x6 | x6 | x6 | x6 | x6 | x6 | x6 | x6 | x6 | x6 | x6 | .C3 z3 | x6 | x6 | x6 | .F3 z3 | x6 |] %17
V:3
 [D,A,]2 [D,G,] [D,F,]2 [D,A,] | [D,D]2 [D,D] .[D,D]3 | [D,A,]2 [D,D] [D,D]2 [D,A,] | [A,,A,]6 | %4
 [D,A,]2 [D,G,] [D,F,]2 [D,A,] | [D,D]2 [D,D] .[D,D]3 | [G,D]2 [G,B,] A,2 [A,,A,] | [D,A,]6 | %8
 [D,D]2 [D,A,] [D,F,]2 [D,A,] | [D,D]2 [F,D] .[G,D]3 | [D,D]2 [D,D] [D,D]2 [D,A,] | %11
 [A,,A,]2 [A,,A,] .[A,,A,]3 | [D,A,]2 [D,G,] [D,F,]2 [D,A,] | [D,D]2 [D,D] .[D,D]3 | %14
 [G,D]2 [G,B,] A,2 [A,,A,] | .A,3 z3 | z6 |] %17
V:4
 x6 | x6 | x6 | x6 | x6 | x6 | x6 | x6 | x6 | x6 | x6 | x6 | x6 | x6 | x6 | D,2- [D,-B,] [D,A,]3- | %16
 [D,A,]6 |] %17

